kora/panel/16/minetime-tray.svg

<svg xmlns="http://www.w3.org/2000/svg" width="16" height="16" version="1.1">
 <defs>
  <style id="current-color-scheme" type="text/css">
   .ColorScheme-Text { color:#dfdfdf; } .ColorScheme-Highlight { color:#4285f4; }
  </style>
 </defs>
 <path style="fill:currentColor" class="ColorScheme-Text" d="M 8,1 C 4.122,1 1,4.122 1,8 c 0,3.878 3.122,7 7,7 3.878,0 7,-3.122 7,-7 C 15,4.122 11.878,1 8,1 Z m 0,2 c 2.77,0 5,2.23 5,5 0,2.77 -2.23,5 -5,5 C 5.23,13 3,10.77 3,8 3,5.23 5.23,3 8,3 Z M 6.3164062,5.0003672 5.7753906,5.3148203 5.6015625,5.4144297 5.0019531,5.7601328 5,5.762086 l 0.00195,0.00195 V 6.3206797 10.199219 L 6,11 7,10.199219 V 7.96875 L 8,9.140625 9,7.96875 v 2.230469 L 10,11 10.998047,10.199219 V 6.3206797 5.7640391 L 11,5.762086 10.998047,5.7601328 10.398438,5.4144297 10.224609,5.3148203 9.6835938,5.0003672 8,6.6976328 Z"/>
</svg>

<svg xmlns="http://www.w3.org/2000/svg" width="16" height="16" viewBox="0 0 16 16">
 <defs>
  <style id="current-color-scheme" type="text/css">
   .ColorScheme-Text { color:#dfdfdf; } .ColorScheme-Highlight { color:#4285f4; } .ColorScheme-NeutralText { color:#ff9800; } .ColorScheme-PositiveText { color:#4caf50; } .ColorScheme-NegativeText { color:#f44336; }
  </style>
 </defs>
 <path style="fill:currentColor" class="ColorScheme-Text" d="m8 1c-3.878 0-7 3.122-7 7s3.122 7 7 7 7-3.122 7-7-3.122-7-7-7zm0 .833c3.417 0 6.167 2.75 6.167 6.167s-2.75 6.167-6.167 6.167-6.167-2.75-6.167-6.167 2.75-6.167 6.167-6.167zm-1.684 3.167-.541.315-.173.099-.6.346-.002.002.002.002v4.435l.998.801 1-.801v-2.23l1 1.172 1-1.172v2.23l1 .801.998-.801v-4.435l.002-.002-.002-.002-.6-.346-.173-.099-.541-.315-1.684 1.698z" />
</svg>
